X: 3119
Q:"Strathspey."
M: C
L: 1/16
K: C
(uef) |\
vgc3e3ud ({d}c4 G2)(ef) | g3ce3c Bd3 d2(ef) |\
g3ca3c g3ce3c | (ABc2) (Bcd2) Gc3 c2(ef) |\
gc3e3d ({d}c4 G2)(ef) | g3ce3c Bd3 d2(ef) |
g3ca3c g3ce3c | (ABc2) (Bcd2) ec3 c2 |]\
uE2 |\
vC3vEuG3uc (ABc2) G3c | Cc3 e3c Bd3 d3e |\
(ABc2) (Bcd2) Gc3 c2E2 |\
(3c2e2f2 (3g2e2g2 (3a2f2a2 (3g2e2g2 | (3f2d2c2 (3B2g2f2 ec3 c2 |]


